!!!OTL:Die weisse Lilie.
!!!OTL-incipit: SCHOENE SILBERBLUETHE
!!!ARE: Europa, Mitteleuropa, Deutschland
!!!SCT: F0976
!!!TXL: @@DE
!!!YEM: Copyright 1995, estate of Helmut Schaffrath.
**kern	**text
*ICvox	*
*M6/8	*
*k[f#]	*
*G:	*
=1	=1
!LO:TX:a:t=Langsam.	!
{8bL	1._Schö-
8aJ	.
8g	-ne
8gL	Sil-
8aJ	.
8b/	-ber-
=2	=2
(4dd	-blü-
8cc)	.
4a	-the,
8r}	.
=3	=3
{8bL	mei-
8aJ	.
8g	-nes
8gL	Gärtchens
8aJ	.
8b/	.
=4	=4
[4.a	Ʒier,
4a]	.
8r}	.
=5	=5
{8bL	ʒei-
8aJ	.
8g	-geſt
8gL	Got-
8aJ	.
8b/	-tes
=6	=6
4.cc/	Gü-
4.ee/}	-te
=7	=7
{8dd/L	gar
8ccJ	.
8b/	ſo
8b/L	freundlich
8ccJ	.
8a	.
=8	=8
[4.g	mir.
4g]	.
8r}	.
==	==
!!!AGN: Natur - Lied, Blumen
!!!ONB: ESAC (Essen Associative Code) Database: FINK
!!!AMT: compound duple
!!!AIN: vox
!!!EED: Helmut Schaffrath
!!!EEV: 1.0
!!!GTL: Lieder um Preise der Natur.
!!!source: Musikalischer Hausschatz der Deutschen. Eine Sammlung von über 1000 Liedern und Gesängen mit Singstimmen und Klavierbegleitung. Leipzig, Litterarisches Verlags-Haus.
!!!page: 735
!!!ENC: Anna Maria Matuszewska
!!!EEV: 2025/03/20
*-	*-
